icons/midnadark/actions/24/media-playback-start.svg

<?xml version="1.0" encoding="UTF-8" standalone="no"?>
<!-- Created with Inkscape (http://www.inkscape.org/) -->

<svg
   xmlns:dc="http://purl.org/dc/elements/1.1/"
   xmlns:cc="http://creativecommons.org/ns#"
   xmlns:rdf="http://www.w3.org/1999/02/22-rdf-syntax-ns#"
   xmlns:svg="http://www.w3.org/2000/svg"
   xmlns="http://www.w3.org/2000/svg"
   xmlns:sodipodi="http://sodipodi.sourceforge.net/DTD/sodipodi-0.dtd"
   xmlns:inkscape="http://www.inkscape.org/namespaces/inkscape"
   width="22"
   height="22"
   id="svg3869"
   version="1.1"
   inkscape:version="0.91 r13725"
   sodipodi:docname="media-playback-start.svg">
  <defs
     id="defs3871">
    <linearGradient
       id="linearGradient4066">
      <stop
         offset="0"
         style="stop-color:#dbc9ee;stop-opacity:1"
         id="stop4068" />
      <stop
         offset="1"
         style="stop-color:#faf7fd;stop-opacity:1"
         id="stop4070" />
    </linearGradient>
    <linearGradient
       id="linearGradient3843-5">
      <stop
         id="stop3845-0"
         style="stop-color:#5a2c8b;stop-opacity:1"
         offset="0" />
      <stop
         id="stop3847-4"
         style="stop-color:#9d59cf;stop-opacity:1"
         offset="1" />
    </linearGradient>
    <clipPath
       clipPathUnits="userSpaceOnUse"
       id="clipPath4160">
      <rect
         style="opacity:1;fill:#f2f2f2;fill-opacity:1;stroke:none;stroke-opacity:1"
         id="rect4162"
         width="1"
         height="1"
         x="7"
         y="1023.3622" />
    </clipPath>
    <linearGradient
       id="linearGradient4290-48">
      <stop
         style="stop-color:#a5a5a5;stop-opacity:1;"
         offset="0"
         id="stop4292-0" />
      <stop
         style="stop-color:#f5f2f5;stop-opacity:1;"
         offset="1"
         id="stop4294-0" />
    </linearGradient>
    <inkscape:perspective
       sodipodi:type="inkscape:persp3d"
       inkscape:vp_x="0 : 12 : 1"
       inkscape:vp_y="0 : 1000 : 0"
       inkscape:vp_z="24 : 12 : 1"
       inkscape:persp3d-origin="12 : 8 : 1"
       id="perspective4146-9" />
    <inkscape:perspective
       sodipodi:type="inkscape:persp3d"
       inkscape:vp_x="0 : 12 : 1"
       inkscape:vp_y="0 : 1000 : 0"
       inkscape:vp_z="24 : 12 : 1"
       inkscape:persp3d-origin="12 : 8 : 1"
       id="perspective4146" />
  </defs>
  <sodipodi:namedview
     id="base"
     pagecolor="#ffffff"
     bordercolor="#666666"
     borderopacity="1.0"
     inkscape:pageopacity="0.0"
     inkscape:pageshadow="2"
     inkscape:zoom="11.313708"
     inkscape:cx="-20.87705"
     inkscape:cy="9.5377671"
     inkscape:document-units="px"
     inkscape:current-layer="layer1-4"
     showgrid="true"
     fit-margin-top="0"
     fit-margin-left="0"
     fit-margin-right="0"
     fit-margin-bottom="0"
     inkscape:window-width="1366"
     inkscape:window-height="633"
     inkscape:window-x="0"
     inkscape:window-y="33"
     inkscape:window-maximized="1"
     inkscape:showpageshadow="false"
     inkscape:snap-bbox="true"
     inkscape:object-nodes="true">
    <inkscape:grid
       type="xygrid"
       id="grid4132" />
    <sodipodi:guide
       position="4,18"
       orientation="18,0"
       id="guide4138" />
    <sodipodi:guide
       position="5,3"
       orientation="0,18"
       id="guide4140" />
    <sodipodi:guide
       position="20,2.0000174"
       orientation="-18,0"
       id="guide4142" />
    <sodipodi:guide
       position="2,21"
       orientation="0,-18"
       id="guide4144" />
    <sodipodi:guide
       position="3,19.000017"
       orientation="16,0"
       id="guide4146" />
    <sodipodi:guide
       position="2,4"
       orientation="0,16"
       id="guide4148" />
    <sodipodi:guide
       position="21,20"
       orientation="-16,0"
       id="guide4150" />
    <sodipodi:guide
       position="2,20"
       orientation="0,-16"
       id="guide4152" />
  </sodipodi:namedview>
  <metadata
     id="metadata3874">
    <rdf:RDF>
      <cc:Work
         rdf:about="">
        <dc:format>image/svg+xml</dc:format>
        <dc:type
           rdf:resource="http://purl.org/dc/dcmitype/StillImage" />
        <dc:title />
      </cc:Work>
    </rdf:RDF>
  </metadata>
  <g
     inkscape:label="Capa 1"
     inkscape:groupmode="layer"
     id="layer1"
     transform="translate(-326,-534.3622)">
    <g
       transform="matrix(1.375,0,0,1.375,322.875,-887.51083)"
       id="layer1-4"
       inkscape:label="Capa 1">
      <g
         transform="matrix(0.6517009,0,0,0.6517009,3.0368427,363.39251)"
         id="layer1-3"
         inkscape:label="Capa 1"
         style="fill:#ffffff;fill-opacity:1">
        <g
           style="fill:#ffffff;fill-opacity:1"
           transform="matrix(1.1159609,0,0,1.1159609,-1.1724939,-120.69549)"
           id="g4151">
          <path
             style="fill:#ffffff;fill-opacity:1;stroke:none;stroke-opacity:1"
             d="M 11 3 C 6.568 3 3 6.568 3 11 C 3 15.432 6.568 19 11 19 C 15.432 19 19 15.432 19 11 C 19 6.568 15.432 3 11 3 z M 8.7910156 7.7675781 L 13.890625 11.177734 L 8.7910156 14.585938 L 8.7910156 7.7675781 z "
             transform="translate(-1.3392253e-7,1030.3622)"
             id="rect3356-7" />
        </g>
        <g
           style="fill:#ffffff;fill-opacity:1"
           transform="matrix(1.4226132,0,0,1.2679986,-23.052987,-280.9677)"
           inkscape:label="Capa 1"
           id="layer1-2" />
      </g>
    </g>
  </g>
</svg>

<svg xmlns="http://www.w3.org/2000/svg" viewBox="0 0 22 22"><defs><clipPath><path fill="#f2f2f2" d="m7 1023.36h1v1h-1z"/></clipPath></defs><path d="m11 3c-4.432 0-8 3.568-8 8 0 4.432 3.568 8 8 8 4.432 0 8-3.568 8-8 0-4.432-3.568-8-8-8m-2.209 4.768l5.1 3.41-5.1 3.408v-6.818" transform="translate(0-.002)" fill="#fff"/></svg>
